X:1
T:Title
%%score { ( 1 3 ) | ( 2 4 ) }
L:1/8
Q:1/4=60
M:6/4
K:G
V:1 treble nm="Grand Piano"
V:3 treble 
V:2 treble 
V:4 treble 
V:1
 B3 A G2 c2 G2 A2 | B6 G6 |[M:3/4] G3 G G2 | [FA]2 [GB]2 [Ac]2 |[M:6/4] B12 | %5
w: J.~M.~Dungan * * * * *|||||
 B3 B B2 [GB]4 [Gd][Gd] | [Gd]4 [CGc]2 [CG]4 [CGA][CGA] | G2- [Gc]2 [DGB]2 [DGB]4 [CFA]2 | %8
w: |||
 [G,B,G]12 |] %9
w: |
V:2
 [G,D]3 [G,CD] [G,B,D]2 [G,EG]2 [G,B,D]2[K:bass] [G,CD]2 | [G,D]6 [G,B,D]6 | %2
[M:3/4] [E,B,E]3 [E,B,E] [E,B,E]2 | [D,D]2 [D,D]2 [D,D]2 |[M:6/4][K:treble] [G,DG]12 | %5
 [G,DG]3 [G,DG] [G,DG]2[K:bass] [=F,D]4 [F,B,][F,B,] | [E,C]4 E,2 ^D,4 D,D, | z2 E2 D,2 D,4 D,2 | %8
 G,,12 |] %9
V:3
 x12 | x12 |[M:3/4] x6 | x6 |[M:6/4] x12 | x12 | x12 | .[DB]6 z6 | x12 |] %9
V:4
 x10[K:bass] x2 | x12 |[M:3/4] x6 | x6 |[M:6/4][K:treble] x12 | x6[K:bass] x6 | x12 | .D,6 z6 | %8
 x12 |] %9

